svg/icon/sphtx.svg

<svg height="32" viewBox="0 0 32 32" width="32" xmlns="http://www.w3.org/2000/svg" xmlns:xlink="http://www.w3.org/1999/xlink"><defs><linearGradient id="a" x1="50%" x2="50%" y1="0%" y2="100%"><stop offset="0" stop-color="#fff" stop-opacity=".5"/><stop offset="1" stop-opacity=".5"/></linearGradient><circle id="b" cx="16" cy="15" r="15"/><filter id="c" height="111.7%" width="111.7%" x="-5.8%" y="-4.2%"><feOffset dy=".5" in="SourceAlpha" result="shadowOffsetOuter1"/><feGaussianBlur in="shadowOffsetOuter1" result="shadowBlurOuter1" stdDeviation=".5"/><feComposite in="shadowBlurOuter1" in2="SourceAlpha" operator="out" result="shadowBlurOuter1"/><feColorMatrix in="shadowBlurOuter1" values="0 0 0 0 0   0 0 0 0 0   0 0 0 0 0  0 0 0 0.199473505 0"/></filter><path id="d" d="m6 11.3909575v-.3559461h8.4174441v.3559461zm0-1.0345823v-.3563752h8.4174441v.3563752zm3.55052538 10.6399774v-8.8930738h.33712017v8.8930738zm.97947632 0v-8.8930738h.3371201v8.8930738zm15.2315162-.7282842-3.7978822-4.0126002.238218-.2516725 3.7980854 4.0123856zm-9.2423325-10.2680255 3.7980853 4.0126002-.2384211.2516726-3.7980853-4.0123857zm8.5497739 10.9998927-3.7978822-4.0126002.2382181-.2518871 3.7980853 4.0126002zm-9.2423325-10.2681328 3.7978823 4.0126002-.2384212.2516726-3.7980853-4.0123857zm5.4218064 4.7680899.2384212-.2518871 4.2747245-4.5161598.2384211.2518871-4.2747245 4.5161598-.2384211.2518871-.4542999.4799587-.2384212.2518871-4.2747245 4.5163744-.2386242-.2518871 4.2749276-4.5163744.2384211-.2518871zm-.4543608-.9836256 4.2749276-4.5161598.2384211.2518871-4.2749276 4.5161599-.2384211.2518871-.4540969.479744-.2386242.2521017-4.2747245 4.5161598-.2384211-.2518871 4.2747245-4.5163744.2384211-.2516725.4542999-.4799586z"/><filter id="e" height="131.8%" width="117.5%" x="-8.8%" y="-11.4%"><feOffset dy=".5" in="SourceAlpha" result="shadowOffsetOuter1"/><feGaussianBlur in="shadowOffsetOuter1" result="shadowBlurOuter1" stdDeviation=".5"/><feColorMatrix in="shadowBlurOuter1" values="0 0 0 0 0   0 0 0 0 0   0 0 0 0 0  0 0 0 0.204257246 0"/></filter></defs><g fill="none" fill-rule="evenodd"><use fill="#000" filter="url(#c)" xlink:href="#b"/><use fill="#00b098" xlink:href="#b"/><use fill="url(#a)" xlink:href="#b"/><circle cx="16" cy="15" r="14.5" stroke="#000" stroke-opacity=".097"/><g fill-rule="nonzero"><use fill="#000" filter="url(#e)" xlink:href="#d"/><use fill="#fff" fill-rule="evenodd" xlink:href="#d"/></g></g></svg>

<svg xmlns="http://www.w3.org/2000/svg" xmlns:xlink="http://www.w3.org/1999/xlink" width="32" height="32" viewBox="0 0 32 32">
  <defs>
    <linearGradient id="sphtx-c" x1="50%" x2="50%" y1="0%" y2="100%">
      <stop offset="0%" stop-color="#FFF" stop-opacity=".5"/>
      <stop offset="100%" stop-opacity=".5"/>
    </linearGradient>
    <circle id="sphtx-b" cx="16" cy="15" r="15"/>
    <filter id="sphtx-a" width="111.7%" height="111.7%" x="-5.8%" y="-4.2%" filterUnits="objectBoundingBox">
      <feOffset dy=".5" in="SourceAlpha" result="shadowOffsetOuter1"/>
      <feGaussianBlur in="shadowOffsetOuter1" result="shadowBlurOuter1" stdDeviation=".5"/>
      <feComposite in="shadowBlurOuter1" in2="SourceAlpha" operator="out" result="shadowBlurOuter1"/>
      <feColorMatrix in="shadowBlurOuter1" values="0 0 0 0 0   0 0 0 0 0   0 0 0 0 0  0 0 0 0.199473505 0"/>
    </filter>
    <path id="sphtx-e" d="M6,11.3909575 L6,11.0350114 L14.4174441,11.0350114 L14.4174441,11.3909575 L6,11.3909575 Z M6,10.3563752 L6,10 L14.4174441,10 L14.4174441,10.3563752 L6,10.3563752 Z M9.55052538,20.9963526 L9.55052538,12.1032788 L9.88764555,12.1032788 L9.88764555,20.9963526 L9.55052538,20.9963526 Z M10.5300017,20.9963526 L10.5300017,12.1032788 L10.8671218,12.1032788 L10.8671218,20.9963526 L10.5300017,20.9963526 Z M25.7615179,20.2680684 L21.9636357,16.2554682 L22.2018537,16.0037957 L25.9999391,20.0161813 L25.7615179,20.2680684 Z M16.5191854,10.0000429 L20.3172707,14.0126431 L20.0788496,14.2643157 L16.2807643,10.25193 L16.5191854,10.0000429 Z M25.0689593,20.9999356 L21.2710771,16.9873354 L21.5092952,16.7354483 L25.3073805,20.7480485 L25.0689593,20.9999356 Z M15.8266268,10.7318028 L19.6245091,14.744403 L19.3860879,14.9960756 L15.5880026,10.9836899 L15.8266268,10.7318028 Z M21.2484332,15.4998927 L21.4868544,15.2480056 L25.7615789,10.7318458 L26,10.9837329 L21.7252755,15.4998927 L21.4868544,15.7517798 L21.0325545,16.2317385 L20.7941333,16.4836256 L16.5194088,21 L16.2807846,20.7481129 L20.5557122,16.2317385 L20.7941333,15.9798514 L21.2484332,15.4998927 Z M20.7940724,14.5162671 L25.069,10.0001073 L25.3074211,10.2519944 L21.0324935,14.7681543 L20.7940724,15.0200414 L20.3399755,15.4997854 L20.1013513,15.7518871 L15.8266268,20.2680469 L15.5882057,20.0161598 L19.8629302,15.4997854 L20.1013513,15.2481129 L20.5556512,14.7681543 L20.7940724,14.5162671 Z"/>
    <filter id="sphtx-d" width="117.5%" height="131.8%" x="-8.8%" y="-11.4%" filterUnits="objectBoundingBox">
      <feOffset dy=".5" in="SourceAlpha" result="shadowOffsetOuter1"/>
      <feGaussianBlur in="shadowOffsetOuter1" result="shadowBlurOuter1" stdDeviation=".5"/>
      <feColorMatrix in="shadowBlurOuter1" values="0 0 0 0 0   0 0 0 0 0   0 0 0 0 0  0 0 0 0.204257246 0"/>
    </filter>
  </defs>
  <g fill="none" fill-rule="evenodd">
    <use fill="#000" filter="url(#sphtx-a)" xlink:href="#sphtx-b"/>
    <use fill="#00B098" xlink:href="#sphtx-b"/>
    <use fill="url(#sphtx-c)" style="mix-blend-mode:soft-light" xlink:href="#sphtx-b"/>
    <circle cx="16" cy="15" r="14.5" stroke="#000" stroke-opacity=".097"/>
    <g fill-rule="nonzero">
      <use fill="#000" filter="url(#sphtx-d)" xlink:href="#sphtx-e"/>
      <use fill="#FFF" fill-rule="evenodd" xlink:href="#sphtx-e"/>
    </g>
  </g>
</svg>
